src/images/social/twitter.svg

<?xml version="1.0" encoding="UTF-8"?>
<svg width="30px" height="21px" viewBox="0 0 30 21" version="1.1" xmlns="http://www.w3.org/2000/svg" xmlns:xlink="http://www.w3.org/1999/xlink">
    <!-- Generator: Sketch 51.2 (57519) - http://www.bohemiancoding.com/sketch -->
    <title>twitter-logo</title>
    <desc>Created with Sketch.</desc>
    <defs></defs>
    <g id="Page-1" stroke="none" stroke-width="1" fill="none" fill-rule="evenodd">
        <g id="Front-Page" transform="translate(-814.000000, -6791.000000)" fill="#000000" fill-rule="nonzero">
            <g id="Footer-Section" transform="translate(195.000000, 6148.000000)">
                <g id="Social" transform="translate(544.000000, 638.000000)">
                    <g id="twitter-logo" transform="translate(75.000000, 5.000000)">
                        <path d="M26.5464501,9.23241299 C28.2279118,9.0936891 29.3684687,8.32928074 29.8074014,7.29208817 C29.2008585,7.66468677 27.3180278,8.07090487 26.2781903,7.68403712 C26.227239,7.43972158 26.1703016,7.20765661 26.1144084,6.99814385 C25.3220882,4.0887703 22.6092807,1.74487239 19.7667981,2.02802784 C19.9967749,1.93517401 20.2300232,1.8487239 20.4625754,1.77111369 C20.7754524,1.65904872 22.6111601,1.36037123 22.3220882,0.712412993 C22.0784687,0.142482599 19.8356381,1.14313225 19.4133411,1.27392111 C19.9708121,1.06426914 20.8927378,0.703642691 20.9915081,0.063062645 C20.1374478,0.180208817 19.2990487,0.583990719 18.6512297,1.17111369 C18.8851044,0.919350348 19.062529,0.612529002 19.1001856,0.282320186 C16.8222738,1.73756381 15.4916241,4.67143852 14.4147564,7.51740139 C13.5691879,6.69793503 12.8197448,6.05262181 12.1474246,5.69429234 C10.2613225,4.68285383 8.00617169,3.62756381 4.46610209,2.31341067 C4.3574478,3.48466357 5.04535963,5.04201856 7.02758701,6.07767981 C6.59812065,6.02018561 5.81276102,6.14846868 5.18464037,6.29888631 C5.44044084,7.64067285 6.27584687,8.74614849 8.537471,9.28071926 C7.50389791,9.34893271 6.96974478,9.58412993 6.48563805,10.0910673 C6.95638051,11.0242691 8.10508121,12.1225754 10.1714617,11.897123 C7.87406032,12.8873318 9.23470998,14.7210905 11.1041067,14.4476102 C7.915058,17.7415545 2.88716937,17.4994664 0,14.7444084 C7.53821346,25.0162413 23.9245476,20.8191647 26.3665197,10.9254292 C28.1961021,10.9410209 29.2716473,10.2916705 29.9385383,9.57577726 C28.8844316,9.75466357 27.3565893,9.56979118 26.5464501,9.23241299 Z" id="Twitter__x28_alt_x29_"></path>
                    </g>
                </g>
            </g>
        </g>
    </g>
</svg>

<svg width="30" height="21" xmlns="http://www.w3.org/2000/svg">
  <path d="M26.546 9.232c1.682-.138 2.822-.903 3.261-1.94-.606.373-2.489.779-3.529.392a12.846 12.846 0 0 0-.164-.686c-.792-2.91-3.505-5.253-6.347-4.97.23-.093.463-.18.696-.257.312-.112 2.148-.41 1.86-1.059-.245-.57-2.487.431-2.91.562.558-.21 1.48-.57 1.579-1.21a4.452 4.452 0 0 0-2.34 1.107c.233-.252.41-.558.448-.889-2.278 1.456-3.608 4.39-4.685 7.235-.846-.82-1.595-1.464-2.268-1.823-1.886-1.011-4.14-2.066-7.68-3.38-.11 1.17.578 2.728 2.56 3.764-.429-.058-1.214.07-1.842.22.255 1.343 1.09 2.448 3.352 2.983-1.033.068-1.567.303-2.051.81.47.933 1.62 2.032 3.685 1.806-2.297.99-.936 2.824.933 2.55C7.915 17.743 2.887 17.5 0 14.745c7.538 10.272 23.925 6.075 26.367-3.819 1.83.016 2.905-.633 3.572-1.35-1.055.18-2.582-.005-3.393-.343z" fill="#000" fill-rule="nonzero"/>
</svg>
